X: 79
T:Morning De
R:reel
S:Bo
M:4/4
L:1/8
Q:1/2=112
K:D
|:~E3B BAFD|EBEB ADFD|~E3B BAFD|BcdB ADFA:|
|B2eB fBeB|BcdB ADFA|B2eB fBeB|dcdB ADFA|
|B2eB fBeB|BcdB ADFA|Bdef gfge|dcdB ADFA||
B2GB FBEB|E2EB ADFA|B2GB FBEB|dcdB ADFA||
B2GA BEGA|B2GB ADFA|BAGF EFGA|BcdB ADFA|]
